X:26
T:PEGDRBY6- Brandy, O '[The Landlady of France]
N:Song by William Dimond [wrong]
N:Music by Michael Kelly [wrong]
S:musical score in 'Songs in The Foundling of the Forest', c 1815
Q:1/4=120
L:1/4
M:C
K:Bb
F|B/ B/ B/ B/ B/ A/ G/ F/|B/ B/ B/ B/ B/A/ G/ F/|\
B/ B/ B/ B/ B/ d/ f/ d/|c3/4A/4 F3/4G/4F||d|\
e/ c/ d/ e/ f/ d/ c/ B/|B/ G/ F/ E/ E/D/ D/ F/|\
G/ A/ B/ G/ A/ c/ A/ F/|GB3/4c/4 B|]

